src/next/res/hldoctp.svg

<svg enable-background="new 0 0 128 128" height="32" viewBox="0 0 32 32" width="32" xmlns="http://www.w3.org/2000/svg" xmlns:xlink="http://www.w3.org/1999/xlink"><linearGradient id="a" gradientUnits="userSpaceOnUse" x1="88.591797" x2="71.262016" y1="96.592697" y2="79.262917"><stop offset="0" stop-color="#fff"/><stop offset="1" stop-color="#555753"/></linearGradient><linearGradient id="b" gradientUnits="userSpaceOnUse" x1="85.219681" x2="61.336319" y1="93.219681" y2="69.336319"><stop offset="0"/><stop offset="1" stop-color="#393b38"/></linearGradient><linearGradient id="c" gradientUnits="userSpaceOnUse" x1="96" x2="88.000198" y1="104" y2="96.000198"><stop offset="0" stop-color="#888a85"/><stop offset=".0072" stop-color="#8c8e89"/><stop offset=".0673" stop-color="#abaca9"/><stop offset=".1347" stop-color="#c5c6c4"/><stop offset=".2115" stop-color="#dbdbda"/><stop offset=".3012" stop-color="#ebebeb"/><stop offset=".4122" stop-color="#f7f7f6"/><stop offset=".5679" stop-color="#fdfdfd"/><stop offset="1" stop-color="#fff"/></linearGradient><radialGradient id="d" cx="102" cy="112.3047" gradientTransform="matrix(.9787234 0 0 .9818182 13.361696 1.163636)" gradientUnits="userSpaceOnUse" r="139.55859"><stop offset="0" stop-color="#535557"/><stop offset=".11366145" stop-color="#898a8c"/><stop offset=".20296688" stop-color="#ececec"/><stop offset=".2363" stop-color="#fafafa"/><stop offset=".2722" stop-color="#fff"/><stop offset=".5313" stop-color="#fafafa"/><stop offset=".8449" stop-color="#ebecec"/><stop offset="1" stop-color="#e1e2e3"/></radialGradient><radialGradient id="e" cx="113.99999" cy="112.3047" gradientUnits="userSpaceOnUse" r="139.5585"><stop offset="0" stop-color="#00537d"/><stop offset=".0151" stop-color="#186389"/><stop offset=".0558" stop-color="#558ca8"/><stop offset=".0964" stop-color="#89afc3"/><stop offset=".1357" stop-color="#b3ccd8"/><stop offset=".1737" stop-color="#d4e2e9"/><stop offset=".2099" stop-color="#ecf2f5"/><stop offset=".2435" stop-color="#fafcfd"/><stop offset=".2722" stop-color="#fff"/></radialGradient><filter id="f"><feGaussianBlur stdDeviation="1.0394514"/></filter><filter id="g"><feGaussianBlur stdDeviation=".50063244"/></filter><filter id="h"><feGaussianBlur stdDeviation=".40750996"/></filter><filter id="i"><feGaussianBlur stdDeviation=".4901192"/></filter><filter id="j"><feGaussianBlur stdDeviation=".90565481"/></filter><linearGradient id="k" gradientTransform="matrix(.75 0 0 .77142856 -31.711139 19.137076)" gradientUnits="userSpaceOnUse" x1="154.28152" x2="154.28152" y1="104.82231" y2="115.19268"><stop offset="0" stop-color="#f60"/><stop offset="1" stop-color="#ffa263"/></linearGradient><linearGradient id="l" gradientUnits="userSpaceOnUse" x1="24" x2="24" y1="136" y2="-64"><stop offset="0" stop-color="#8e79b9"/><stop offset="1" stop-color="#462886"/></linearGradient><g transform="scale(.25)"><path d="m23 9 .04082 112h61.131184c.53 0 1.039-.211 1.414-.586l32.827996-32.828c.375-.375.586-.884.586-1.414v-77.172z" filter="url(#f)" opacity=".306849" transform="matrix(1.0416667 0 0 1.0357143 2.041658 -3.321534)"/><path d="m24.919999 10.931136v108.137934l58.676001-.0001c.53 0 1.039-.211 1.414-.586l31.484-31.765936c.375-.375.586-.884.586-1.414v-74.371898z" filter="url(#g)" opacity=".89589" transform="matrix(1.0416667 0 0 1.0357143 2.041658 -3.321534)"/><path d="m23 9.9655172.040816 111.0344828h61.131184c.53 0 1.039-.211 1.414-.586l32.828-32.828c.375-.375.586-.884.586-1.414v-76.2064828z" filter="url(#f)" opacity=".306849" transform="matrix(1.0416667 0 0 1.0357143 2.041658 -3.321534)"/><path d="m27.999993 8v112h61.172c.53 0 1.039-.211 1.414-.586l32.827997-32.828c.375-.375.586-.884.586-1.414v-77.172z" fill="url(#e)"/><path d="m31.678716 10.7c-.539276 0-.978723.440836-.978723.981818l-.7 105.336362c0 .54197.439447.98182.978723.98182h57.913022c.257404 0 .509915-.10407.691957-.28767l32.129525-32.23113c.18303-.1836.28677-.435927.28677-.694145v-73.805237c0-.540982-.43847-.981818-.97872-.981818z" fill="url(#d)"/><path d="m40.5 84h71.5v4.000002h-71.5z" fill="#b3b3b3"/><path d="m72 96h24v12h-24z" fill="url(#k)"/><g transform="translate(11.999994)"><path d="m111.414 86.586c.25-.25-26.379-1.586-31.414-1.586-1.654 0-3 1.346-3 3 0 5.035 1.336 31.664 1.586 31.414z" fill="url(#a)" filter="url(#h)" opacity=".1"/><path d="m111.414 86.586c.375-.375-21.97-.586-31.414-.586-1.103 0-2 .897-2 2 0 9.444.211 31.789.586 31.414z" filter="url(#j)" opacity=".2"/><path d="m111.414 86.586c.239-.239-21.607.414-31.414.414-.553 0-1 .447-1 1 0 9.807-.653 31.653-.414 31.414z" fill="url(#b)" filter="url(#i)" opacity=".1"/><path d="m78.586 119.414s11.914-9.914 17.414-15.414 15.414-17.414 15.414-17.414-21.164 1.414-31.414 1.414c0 10.25-1.414 31.414-1.414 31.414z" fill="url(#c)"/></g><path d="m40 36h72v3.999999h-72z" fill="#b3b3b3"/><path d="m44 24h32v12h-32z" fill="#f60"/><g fill="#b3b3b3"><path d="m40 51.999996h72v4.000005h-72z"/><path d="m40 68h72v4.000001h-72z"/><path d="m40 100h28v4h-28z"/></g><path d="m28 20.005859v20.304688h14.394531c2.201838.0026 3.289237-.935857 4.210938-1.857422.9217-.921565 1.860061-2.009093 1.857422-4.210937v-8.144532c.0026-2.201904-.935854-3.289209-1.857422-4.210937-.921568-.921729-2.008648-1.860326-4.210938-1.857422zm9.279297 61.894532c-.738179.010826-1.505011.189029-2.326172.599609-2.250886 1.125415-3.106915 3.394085-3.109375 5.431641a4.1570214 4.1570214 0 0 0 0 .0059v3.90625h-3.84375v20.312499h3.84375v3.74219c-.0028 1.52504.568093 2.99259 1.544922 4.10156h8.777344l15.878906-13.03125c.000331-.00019.01475-.0111.01563-.0117l.0059-.004.101563-.084a4.1570214 4.1570214 0 0 0 .0098-.01l-.0918.0664c-.03265.0231-.06303.0444-.0918.0625a4.1570214 4.1570214 0 0 0 .183593-.1289 4.1570214 4.1570214 0 0 0 .002-.002 4.1570214 4.1570214 0 0 0 .002 0l.0078-.006a4.1570214 4.1570214 0 0 0 .28125-.25586l-.177734.17774-.103516.0781a4.1570214 4.1570214 0 0 0 .136719-.0957c-.167698.12979-.241866.18487-.259766.19726.0085-.007.06936-.054.228516-.16796a4.1570214 4.1570214 0 0 0 .107422-.0801c1.683865-1.29009 2.378906-2.60887 2.378906-4.79883 0-2.190269-.694908-3.508591-2.378906-4.798827a4.1570214 4.1570214 0 0 0 -.101563-.07617c-.175554-.126161-.256856-.189007-.255859-.189453.0084.0051.10014.07347.287109.21875a4.1570214 4.1570214 0 0 0 -.152343-.105469 4.1570214 4.1570214 0 0 0 -.01172-.01172l-.123047-.101562s-.002-.002-.002-.002c.000034.000009-.004-.002-.0039-.002l-16.490348-13.530648a4.1570214 4.1570214 0 0 0 -.09961-.08203 4.1570214 4.1570214 0 0 0 -2.017578-.919921c-.70464-.258577-1.414165-.415126-2.152343-.404299zm4.296875 1.43164c.06604.0589.09934.09228.125.117188.05132.04983.06933.06881.08398.08398.02932.03036.04492.04883.04492.04883a4.1570214 4.1570214 0 0 0 -.253906-.25z" fill="#fff"/><path d="m4 42.18625c0-9.739431 8.70398-18.03125 18.53125-18.03125l19.868745.03125c.83428-.0011 1.90725 1.07239 1.90625 1.90625v8.15625c.001.83431-1.07238 1.90725-1.90625 1.90625h-20.368745c-.0105-.00009-.02075.00005-.03125 0-1.672-.0078-3.3108.554069-4.4375 1.6875-1.13378 1.14054-1.5625 2.67719-1.5625 4.34375v47.782508c-.00009.0105.00005.02075 0 .03125-.0078 1.671996.55407 3.310792 1.6875 4.437492 1.14054 1.13378 2.67719 1.5625 4.34375 1.5625h13.96875v-8.062492c.0011-.91099.372169-1.49859.8125-1.71875.55932-.27966 1.40632-.20325 1.9375.1875h.03125s.02525.02725.03125.03125l16.71875 13.718742.03125.0313c.0405.0327.0822.064.125.0937.0307.0217.06195.0425.09375.0625.0287.0223.06425.0413.09375.0625.42985.32934.75.96358.75 1.5 0 .53647-.32011 1.17064-.75 1.5-.0296.0212-.06455.0399-.09375.0625-.0318.02-.06305.0408-.09375.0625l-.125.0937-.03125.0313-16.71875 13.71875-.03125.0313h-.03125c-.29881.2223-.65181.3611-1.03125.375-.90135.0291-1.72075-.80089-1.71875-1.87505v-7.90625h-13.96875c-9.73943 0-18.03125-8.70398-18.03125-18.531242z" fill="url(#l)"/></g></svg>

<?xml version="1.0" encoding="UTF-8" standalone="no"?>
<svg
   xmlns:dc="http://purl.org/dc/elements/1.1/"
   xmlns:cc="http://creativecommons.org/ns#"
   xmlns:rdf="http://www.w3.org/1999/02/22-rdf-syntax-ns#"
   xmlns:svg="http://www.w3.org/2000/svg"
   xmlns="http://www.w3.org/2000/svg"
   xmlns:sodipodi="http://sodipodi.sourceforge.net/DTD/sodipodi-0.dtd"
   xmlns:inkscape="http://www.inkscape.org/namespaces/inkscape"
   enable-background="new 0 0 128 128"
   height="32"
   viewBox="0 0 32 32"
   width="32"
   version="1.1"
   id="svg132"
   sodipodi:docname="hldoctp.svg"
   inkscape:version="0.92.4 (unknown)">
  <metadata
     id="metadata138">
    <rdf:RDF>
      <cc:Work
         rdf:about="">
        <dc:format>image/svg+xml</dc:format>
        <dc:type
           rdf:resource="http://purl.org/dc/dcmitype/StillImage" />
        <dc:title></dc:title>
      </cc:Work>
    </rdf:RDF>
  </metadata>
  <defs
     id="defs136" />
  <sodipodi:namedview
     pagecolor="#ffffff"
     bordercolor="#666666"
     borderopacity="1"
     objecttolerance="10"
     gridtolerance="10"
     guidetolerance="10"
     inkscape:pageopacity="0"
     inkscape:pageshadow="2"
     inkscape:window-width="640"
     inkscape:window-height="480"
     id="namedview134"
     showgrid="true"
     inkscape:zoom="3.875"
     inkscape:cx="16.118223"
     inkscape:cy="27.347269"
     inkscape:current-layer="g4902">
    <inkscape:grid
       type="xygrid"
       id="grid4877" />
  </sodipodi:namedview>
  <linearGradient
     id="a"
     gradientUnits="userSpaceOnUse"
     x1="88.591797"
     x2="71.262016"
     y1="96.592697"
     y2="79.262917">
    <stop
       offset="0"
       stop-color="#fff"
       id="stop2" />
    <stop
       offset="1"
       stop-color="#555753"
       id="stop4" />
  </linearGradient>
  <linearGradient
     id="b"
     gradientUnits="userSpaceOnUse"
     x1="85.219681"
     x2="61.336319"
     y1="93.219681"
     y2="69.336319">
    <stop
       offset="0"
       id="stop7" />
    <stop
       offset="1"
       stop-color="#393b38"
       id="stop9" />
  </linearGradient>
  <linearGradient
     id="c"
     gradientUnits="userSpaceOnUse"
     x1="96"
     x2="88.000198"
     y1="104"
     y2="96.000198">
    <stop
       offset="0"
       stop-color="#888a85"
       id="stop12" />
    <stop
       offset=".0072"
       stop-color="#8c8e89"
       id="stop14" />
    <stop
       offset=".0673"
       stop-color="#abaca9"
       id="stop16" />
    <stop
       offset=".1347"
       stop-color="#c5c6c4"
       id="stop18" />
    <stop
       offset=".2115"
       stop-color="#dbdbda"
       id="stop20" />
    <stop
       offset=".3012"
       stop-color="#ebebeb"
       id="stop22" />
    <stop
       offset=".4122"
       stop-color="#f7f7f6"
       id="stop24" />
    <stop
       offset=".5679"
       stop-color="#fdfdfd"
       id="stop26" />
    <stop
       offset="1"
       stop-color="#fff"
       id="stop28" />
  </linearGradient>
  <radialGradient
     id="d"
     cx="102"
     cy="112.3047"
     gradientTransform="matrix(0.9787234,0,0,0.9818182,13.361696,1.163636)"
     gradientUnits="userSpaceOnUse"
     r="139.55859">
    <stop
       offset="0"
       stop-color="#535557"
       id="stop31" />
    <stop
       offset=".11366145"
       stop-color="#898a8c"
       id="stop33" />
    <stop
       offset=".20296688"
       stop-color="#ececec"
       id="stop35" />
    <stop
       offset=".2363"
       stop-color="#fafafa"
       id="stop37" />
    <stop
       offset=".2722"
       stop-color="#fff"
       id="stop39" />
    <stop
       offset=".5313"
       stop-color="#fafafa"
       id="stop41" />
    <stop
       offset=".8449"
       stop-color="#ebecec"
       id="stop43" />
    <stop
       offset="1"
       stop-color="#e1e2e3"
       id="stop45" />
  </radialGradient>
  <radialGradient
     id="e"
     cx="113.99999"
     cy="112.3047"
     gradientUnits="userSpaceOnUse"
     r="139.5585">
    <stop
       offset="0"
       stop-color="#00537d"
       id="stop48" />
    <stop
       offset=".0151"
       stop-color="#186389"
       id="stop50" />
    <stop
       offset=".0558"
       stop-color="#558ca8"
       id="stop52" />
    <stop
       offset=".0964"
       stop-color="#89afc3"
       id="stop54" />
    <stop
       offset=".1357"
       stop-color="#b3ccd8"
       id="stop56" />
    <stop
       offset=".1737"
       stop-color="#d4e2e9"
       id="stop58" />
    <stop
       offset=".2099"
       stop-color="#ecf2f5"
       id="stop60" />
    <stop
       offset=".2435"
       stop-color="#fafcfd"
       id="stop62" />
    <stop
       offset=".2722"
       stop-color="#fff"
       id="stop64" />
  </radialGradient>
  <filter
     id="f">
    <feGaussianBlur
       stdDeviation="1.0394514"
       id="feGaussianBlur67" />
  </filter>
  <filter
     id="g">
    <feGaussianBlur
       stdDeviation=".50063244"
       id="feGaussianBlur70" />
  </filter>
  <filter
     id="h">
    <feGaussianBlur
       stdDeviation=".40750996"
       id="feGaussianBlur73" />
  </filter>
  <filter
     id="i">
    <feGaussianBlur
       stdDeviation=".4901192"
       id="feGaussianBlur76" />
  </filter>
  <filter
     id="j">
    <feGaussianBlur
       stdDeviation=".90565481"
       id="feGaussianBlur79" />
  </filter>
  <linearGradient
     id="k"
     gradientTransform="matrix(0.75,0,0,0.77142856,-31.711139,19.137076)"
     gradientUnits="userSpaceOnUse"
     x1="154.28152"
     x2="154.28152"
     y1="104.82231"
     y2="115.19268">
    <stop
       offset="0"
       stop-color="#f60"
       id="stop82" />
    <stop
       offset="1"
       stop-color="#ffa263"
       id="stop84" />
  </linearGradient>
  <linearGradient
     id="l"
     gradientUnits="userSpaceOnUse"
     x1="24"
     x2="24"
     y1="136"
     y2="-64">
    <stop
       offset="0"
       stop-color="#8e79b9"
       id="stop87" />
    <stop
       offset="1"
       stop-color="#462886"
       id="stop89" />
  </linearGradient>
  <g
     id="g4902"
     transform="scale(0.25)">
    <path
       id="path92"
       transform="matrix(1.0416667,0,0,1.0357143,2.041658,-3.321534)"
       d="m 23,9 0.04082,112 h 61.131184 c 0.53,0 1.039,-0.211 1.414,-0.586 L 118.414,87.586 C 118.789,87.211 119,86.702 119,86.172 V 9 Z"
       inkscape:connector-curvature="0"
       style="opacity:0.30684904;filter:url(#f)" />
    <path
       id="path94"
       transform="matrix(1.0416667,0,0,1.0357143,2.041658,-3.321534)"
       d="M 24.919999,10.931136 V 119.06907 l 58.676001,-1e-4 c 0.53,0 1.039,-0.211 1.414,-0.586 l 31.484,-31.765936 c 0.375,-0.375 0.586,-0.884 0.586,-1.414 V 10.931136 Z"
       inkscape:connector-curvature="0"
       style="opacity:0.89589;filter:url(#g)" />
    <path
       id="path96"
       transform="matrix(1.0416667,0,0,1.0357143,2.041658,-3.321534)"
       d="M 23,9.9655172 23.040816,121 H 84.172 c 0.53,0 1.039,-0.211 1.414,-0.586 L 118.414,87.586 C 118.789,87.211 119,86.702 119,86.172 V 9.9655172 Z"
       inkscape:connector-curvature="0"
       style="opacity:0.30684904;filter:url(#f)" />
    <path
       id="path98"
       d="m 27.999993,8 v 112 h 61.172 c 0.53,0 1.039,-0.211 1.414,-0.586 L 123.41399,86.586 c 0.375,-0.375 0.586,-0.884 0.586,-1.414 V 8 Z"
       style="fill:url(#e)"
       inkscape:connector-curvature="0" />
    <path
       id="path100"
       d="m 31.678716,10.7 c -0.539276,0 -0.978723,0.440836 -0.978723,0.981818 l -0.7,105.336362 c 0,0.54197 0.439447,0.98182 0.978723,0.98182 h 57.913022 c 0.257404,0 0.509915,-0.10407 0.691957,-0.28767 L 121.71322,85.4812 c 0.18303,-0.1836 0.28677,-0.435927 0.28677,-0.694145 V 10.981818 C 121.99999,10.440836 121.56152,10 121.02127,10 Z"
       style="fill:url(#d)"
       inkscape:connector-curvature="0" />
    <path
       id="path102"
       d="M 40.5,84 H 112 v 4.000002 H 40.5 Z"
       inkscape:connector-curvature="0"
       style="fill:#b3b3b3" />
    <path
       id="path104"
       d="m 72,96 h 24 v 12 H 72 Z"
       style="fill:url(#k)"
       inkscape:connector-curvature="0" />
    <g
       id="g114"
       transform="translate(11.999994)">
      <path
         id="path106"
         d="M 111.414,86.586 C 111.664,86.336 85.035,85 80,85 c -1.654,0 -3,1.346 -3,3 0,5.035 1.336,31.664 1.586,31.414 z"
         style="opacity:0.1;fill:url(#a);filter:url(#h)"
         inkscape:connector-curvature="0" />
      <path
         id="path108"
         d="M 111.414,86.586 C 111.789,86.211 89.444,86 80,86 c -1.103,0 -2,0.897 -2,2 0,9.444 0.211,31.789 0.586,31.414 z"
         inkscape:connector-curvature="0"
         style="opacity:0.2;filter:url(#j)" />
      <path
         id="path110"
         d="M 111.414,86.586 C 111.653,86.347 89.807,87 80,87 c -0.553,0 -1,0.447 -1,1 0,9.807 -0.653,31.653 -0.414,31.414 z"
         style="opacity:0.1;fill:url(#b);filter:url(#i)"
         inkscape:connector-curvature="0" />
      <path
         id="path112"
         d="m 78.586,119.414 c 0,0 11.914,-9.914 17.414,-15.414 5.5,-5.5 15.414,-17.414 15.414,-17.414 0,0 -21.164,1.414 -31.414,1.414 0,10.25 -1.414,31.414 -1.414,31.414 z"
         style="fill:url(#c)"
         inkscape:connector-curvature="0" />
    </g>
    <path
       id="path116"
       d="m 40,36 h 72 v 3.999999 H 40 Z"
       inkscape:connector-curvature="0"
       style="fill:#b3b3b3" />
    <path
       id="path118"
       d="M 44,24 H 76 V 36 H 44 Z"
       inkscape:connector-curvature="0"
       style="fill:#ff6600" />
    <g
       id="g126"
       style="fill:#b3b3b3">
      <path
         id="path120"
         d="m 40,51.999996 h 72 v 4.000005 H 40 Z"
         inkscape:connector-curvature="0" />
      <path
         id="path122"
         d="m 40,68 h 72 v 4.000001 H 40 Z"
         inkscape:connector-curvature="0" />
      <path
         id="path124"
         d="m 40,100 h 28 v 4 H 40 Z"
         inkscape:connector-curvature="0" />
    </g>
    <path
       id="path128"
       d="m 28,20.005859 v 20.304688 h 14.394531 c 2.201838,0.0026 3.289237,-0.935857 4.210938,-1.857422 0.9217,-0.921565 1.860061,-2.009093 1.857422,-4.210937 v -8.144532 c 0.0026,-2.201904 -0.935854,-3.289209 -1.857422,-4.210937 -0.921568,-0.921729 -2.008648,-1.860326 -4.210938,-1.857422 z m 9.279297,61.894532 C 36.541118,81.911217 35.774286,82.08942 34.953125,82.5 32.702239,83.625415 31.84621,85.894085 31.84375,87.931641 a 4.1570214,4.1570214 0 0 0 0,0.0059 v 3.90625 H 28 v 20.312499 h 3.84375 v 3.74219 c -0.0028,1.52504 0.568093,2.99259 1.544922,4.10156 h 8.777344 l 15.878906,-13.03125 c 3.31e-4,-1.9e-4 0.01475,-0.0111 0.01563,-0.0117 l 0.0059,-0.004 0.101563,-0.084 a 4.1570214,4.1570214 0 0 0 0.0098,-0.01 l -0.0918,0.0664 c -0.03265,0.0231 -0.06303,0.0444 -0.0918,0.0625 a 4.1570214,4.1570214 0 0 0 0.183593,-0.1289 4.1570214,4.1570214 0 0 0 0.002,-0.002 4.1570214,4.1570214 0 0 0 0.002,0 l 0.0078,-0.006 a 4.1570214,4.1570214 0 0 0 0.28125,-0.25586 l -0.177734,0.17774 -0.103516,0.0781 a 4.1570214,4.1570214 0 0 0 0.136719,-0.0957 c -0.167698,0.12979 -0.241866,0.18487 -0.259766,0.19726 0.0085,-0.007 0.06936,-0.054 0.228516,-0.16796 a 4.1570214,4.1570214 0 0 0 0.107422,-0.0801 c 1.683865,-1.29009 2.378906,-2.60887 2.378906,-4.79883 0,-2.190269 -0.694908,-3.508591 -2.378906,-4.798827 a 4.1570214,4.1570214 0 0 0 -0.101563,-0.07617 c -0.175554,-0.126161 -0.256856,-0.189007 -0.255859,-0.189453 0.0084,0.0051 0.10014,0.07347 0.287109,0.21875 a 4.1570214,4.1570214 0 0 0 -0.152343,-0.105469 4.1570214,4.1570214 0 0 0 -0.01172,-0.01172 l -0.123047,-0.101562 c 0,0 -0.002,-0.002 -0.002,-0.002 3.4e-5,9e-6 -0.004,-0.002 -0.0039,-0.002 L 41.548828,83.306641 A 4.1570214,4.1570214 0 0 0 41.449218,83.224611 4.1570214,4.1570214 0 0 0 39.43164,82.30469 C 38.727,82.046113 38.017475,81.889564 37.279297,81.900391 Z m 4.296875,1.43164 c 0.06604,0.0589 0.09934,0.09228 0.125,0.117188 0.05132,0.04983 0.06933,0.06881 0.08398,0.08398 0.02932,0.03036 0.04492,0.04883 0.04492,0.04883 a 4.1570214,4.1570214 0 0 0 -0.253906,-0.25 z"
       inkscape:connector-curvature="0"
       style="fill:#ffffff" />
    <path
       id="path130"
       d="M 4,42.18625 C 4,32.446819 12.70398,24.155 22.53125,24.155 l 19.868745,0.03125 c 0.83428,-0.0011 1.90725,1.07239 1.90625,1.90625 v 8.15625 c 0.001,0.83431 -1.07238,1.90725 -1.90625,1.90625 H 22.03125 c -0.0105,-9e-5 -0.02075,5e-5 -0.03125,0 -1.672,-0.0078 -3.3108,0.554069 -4.4375,1.6875 C 16.42872,38.98304 16,40.51969 16,42.18625 v 47.782508 c -9e-5,0.0105 5e-5,0.02075 0,0.03125 -0.0078,1.671996 0.55407,3.310792 1.6875,4.437492 C 18.82804,95.57128 20.36469,96 22.03125,96 H 36 v -8.062492 c 0.0011,-0.91099 0.372169,-1.49859 0.8125,-1.71875 0.55932,-0.27966 1.40632,-0.20325 1.9375,0.1875 h 0.03125 c 0,0 0.02525,0.02725 0.03125,0.03125 l 16.71875,13.718742 0.03125,0.0313 c 0.0405,0.0327 0.0822,0.064 0.125,0.0937 0.0307,0.0217 0.06195,0.0425 0.09375,0.0625 0.0287,0.0223 0.06425,0.0413 0.09375,0.0625 0.42985,0.32934 0.75,0.96358 0.75,1.5 0,0.53647 -0.32011,1.17064 -0.75,1.5 -0.0296,0.0212 -0.06455,0.0399 -0.09375,0.0625 -0.0318,0.02 -0.06305,0.0408 -0.09375,0.0625 l -0.125,0.0937 -0.03125,0.0313 -16.71875,13.71875 -0.03125,0.0313 H 38.75 c -0.29881,0.2223 -0.65181,0.3611 -1.03125,0.375 C 36.8174,117.8104 35.998,116.98041 36,115.90625 V 108 H 22.03125 C 12.29182,108 4,99.29602 4,89.468758 Z"
       style="fill:url(#l)"
       inkscape:connector-curvature="0" />
  </g>
</svg>
